svgs/jenius.svg

<svg width="192" height="192" viewBox="0 0 192 192" fill="none" xmlns="http://www.w3.org/2000/svg"><path fill-rule="evenodd" clip-rule="evenodd" d="M111 44c-9.831 0-19.02 2.62-26.894 7.18C115.728 53.403 142 76.097 142 105.5c0 17.142-8.93 32.004-22.644 41.859C144.724 143.422 164 121.85 164 96c0-28.623-23.632-52-53-52Zm0-12c-18.943 0-36.038 7.995-47.937 20.775C36.492 58.798 16 79.533 16 105.5c0 30.972 29.151 54.5 63 54.5a72.08 72.08 0 0 0 16.349-1.87A66.058 66.058 0 0 0 111 160c35.801 0 65-28.557 65-64s-29.199-64-65-64Zm-83 73.5c0 20.925 18.765 39.536 44.653 42.179C56.511 136.052 46 117.265 46 96a62.938 62.938 0 0 1 5.797-26.467C37.283 77.21 28 90.783 28 105.5Zm34.944 12.451c6.29 13.234 18.096 23.464 32.558 27.793C116 139.922 130 123.574 130 105.5c0-9.645-3.987-18.799-10.821-26.124A31.623 31.623 0 0 1 121 90c0 19.338-17.155 34-37 34-7.707 0-15.008-2.211-21.056-6.049ZM59 90c0-11.59 10.604-22 25-22s25 10.41 25 22-10.604 22-25 22-25-10.41-25-22Z" fill="#000"/></svg>

<svg id="vector" xmlns="http://www.w3.org/2000/svg" width="192" height="192" viewBox="0 0 192 192"><path fill="#000000" d="M111,44C101.169,44 91.98,46.62 84.106,51.179C115.728,53.403 142,76.098 142,105.5C142,122.642 133.07,137.504 119.356,147.359C144.724,143.422 164,121.85 164,96C164,67.378 140.368,44 111,44ZM111,32C92.057,32 74.962,39.995 63.063,52.775C36.492,58.798 16,79.533 16,105.5C16,136.472 45.151,160 79,160C84.616,160 90.103,159.352 95.349,158.13C100.365,159.352 105.607,160 111,160C146.801,160 176,131.443 176,96C176,60.557 146.801,32 111,32ZM28,105.5C28,126.425 46.765,145.036 72.654,147.679C56.511,136.052 46,117.265 46,96C46,86.551 48.075,77.592 51.797,69.533C37.283,77.21 28,90.783 28,105.5ZM62.944,117.951C69.235,131.185 81.04,141.415 95.502,145.744C116,139.922 130,123.574 130,105.5C130,95.855 126.013,86.701 119.179,79.376C120.358,82.695 121,86.26 121,90C121,109.338 103.845,124 84,124C76.293,124 68.992,121.789 62.944,117.951ZM59,90C59,78.41 69.604,68 84,68C98.396,68 109,78.41 109,90C109,101.59 98.396,112 84,112C69.604,112 59,101.59 59,90Z" fill-rule="evenodd" id="path_0"/></svg>
